X:50
T:Trip to the Ve Skerries
C:Debbie Scott
M:4/4
K:E minor
|: edBA B2 (3eee | edBA BGEF | G3 F GABd | g2 fg edBd | \
edBA B2 (3eee | edBA BGEF | G3 F GABd | g2 fg e2 z2 ::
K:A minor
A,2 A,B, CDEG | FADE FGAF | G2 GF GABd | dcAG AGEC | \
A,2 A,B, CDEG | FADE FGAF | G2 GF GABd | dcAG A2 z2 :|
